src/svg-icons/svg/room-dinner.svg

<?xml version="1.0" encoding="UTF-8" standalone="no"?>
<svg width="32px" height="32px" viewBox="0 0 32 32" version="1.1" xmlns="http://www.w3.org/2000/svg" xmlns:xlink="http://www.w3.org/1999/xlink">
    <!-- Generator: Sketch 3.7.2 (28276) - http://www.bohemiancoding.com/sketch -->
    <title>Artboard 1</title>
    <desc>Created with Sketch.</desc>
    <defs></defs>
    <g id="Page-1" stroke="none" stroke-width="1" fill="none" fill-rule="evenodd">
        <g id="Artboard-1" fill="#000000">
            <path d="M23.9928571,20.7857143 C23.9928571,16.3713812 20.4143331,12.7928571 16,12.7928571 C11.5856669,12.7928571 8.00714286,16.3713812 8.00714286,20.7857143 L8.00714286,21.3857143 L8.60714286,21.3857143 L23.3928571,21.3857143 L23.9928571,21.3857143 L23.9928571,20.7857143 Z M9.23341644,20.1841313 C9.53789823,16.7143221 12.451133,13.9928571 16,13.9928571 C19.6108068,13.9928571 22.5635998,16.8101488 22.7801317,20.2000008 L9.22999954,20.1857143 L9.23341644,20.1841313 Z" id="Combined-Shape"></path>
            <path d="M11.0105796,18.7640752 L12.081568,19.3053552 C12.7092044,18.0634999 13.7901375,17.0974054 15.0965831,16.6161967 L14.6818227,15.4901532 C13.089952,16.0764938 11.7748444,17.2518841 11.0105796,18.7640752 Z" id="Oval-667"></path>
            <path d="M16.1607143,13.9928571 C17.1134055,13.9928571 17.8857143,13.2205483 17.8857143,12.2678571 C17.8857143,11.3151659 17.1134055,10.5428571 16.1607143,10.5428571 C15.2080231,10.5428571 14.4357143,11.3151659 14.4357143,12.2678571 C14.4357143,13.2205483 15.2080231,13.9928571 16.1607143,13.9928571 L16.1607143,13.9928571 Z M16.1607143,12.7928571 C15.8707648,12.7928571 15.6357143,12.5578066 15.6357143,12.2678571 C15.6357143,11.9779076 15.8707648,11.7428571 16.1607143,11.7428571 C16.4506638,11.7428571 16.6857143,11.9779076 16.6857143,12.2678571 C16.6857143,12.5578066 16.4506638,12.7928571 16.1607143,12.7928571 L16.1607143,12.7928571 Z" id="Oval-666"></path>
            <path d="M15.4153679,5.42992928 C15.2469,5.48523152 15.0242272,5.59003358 14.7967314,5.76189154 C14.0297348,6.34130663 13.8380405,7.26399214 14.5699198,8.29514722 C14.9648317,8.85154414 14.9539867,9.09889876 14.7863092,9.27006813 C14.7448779,9.31236219 14.7052389,9.33762241 14.701453,9.33930891 L15.1897596,10.4354643 C15.3206318,10.3771644 15.48298,10.273707 15.643536,10.1098075 C16.2304431,9.51067813 16.2696414,8.61663718 15.5484873,7.60059286 C15.2089175,7.12216819 15.250253,6.9232074 15.5200568,6.71938846 C15.6256424,6.63962558 15.7360509,6.58766126 15.7896372,6.57007072 L15.4153679,5.42992928 L15.4153679,5.42992928 Z" id="Path-1345"></path>
            <polygon id="Path-1344" points="24.999024 22.4 6.99902396 22.4 6.99902396 23.6 24.999024 23.6"></polygon>
        </g>
    </g>
</svg>

<svg width="32" height="32" viewBox="0 0 32 32" xmlns="http://www.w3.org/2000/svg"><g fill="#000" fill-rule="evenodd"><path d="M23.993 20.786a7.993 7.993 0 0 0-15.986 0v.6H23.993v-.6zm-14.76-.602A6.794 6.794 0 0 1 16 13.994c3.61 0 6.564 2.816 6.78 6.206l-13.55-.014.003-.002z"/><path d="M11.01 18.764l1.072.54a5.528 5.528 0 0 1 3.015-2.688l-.415-1.126a6.728 6.728 0 0 0-3.67 3.274zM16.16 13.993a1.725 1.725 0 1 0 0-3.45 1.725 1.725 0 0 0 0 3.45zm0-1.2a.525.525 0 1 1 0-1.05.525.525 0 0 1 0 1.05zM15.415 5.43c-.168.055-.39.16-.618.332-.767.58-.96 1.502-.227 2.533.395.557.384.804.216.975a.45.45 0 0 1-.085.07l.49 1.095a1.51 1.51 0 0 0 .454-.325c.586-.6.626-1.493-.096-2.51-.34-.478-.298-.677-.028-.88.106-.08.216-.132.27-.15l-.375-1.14zM25 22.4H7v1.2h18z"/></g></svg>
